X: 319
T:The Old Wheels of the World
T:Unknown Reel 41b
M:C|
L:1/8
R:Reel
Z:Kevin Gow
K:Am
g^f|e~A3 e~A3|GEDE G3G|A2AB cBcd|e^fge dgfg|!
e~A3 e~A3|GEDE G3G|A2AB cBcd|e^fge dcBc||!
d~g3 d~g3|e~a3 e~a3|d~g3 ge^fg|a^fge dcBc|!
d~g3 d~g3|e~a3 e~a3|d~g3 ge^fg|a^fge d3z||
<end>
<start>
